dist/assets/zzap-logo.svg

<?xml version="1.0" encoding="UTF-8" standalone="no"?>
<svg xmlns:rdf="http://www.w3.org/1999/02/22-rdf-syntax-ns#" xmlns="http://www.w3.org/2000/svg" xml:space="preserve" height="512" viewBox="0 0 656 511.99998" width="656" version="1.1" xmlns:cc="http://creativecommons.org/ns#" xmlns:dc="http://purl.org/dc/elements/1.1/">
  <defs id="defs6"><clipPath id="clipPath152" clipPathUnits="userSpaceOnUse">
    <path id="path154" d="m0 841.89h1190.6v-841.89h-1190.6v841.89z"/></clipPath>
  </defs><g id="g10" transform="matrix(1.25 0 0 -1.25 0 512)"><g id="g12" transform="translate(383.5 160.31)"><path id="path14" d="m0 0-82.605-52.861-40.475 104.71 88.916 77.951 34.164-129.8z" fill="#2793d8"/></g><g id="g16" transform="translate(198.43 301.32)"><path id="path18" d="m0 0-82.91-52.41-60.19 109.68 84.708 51 58.392-108.27z" fill="#2897de"/></g><g id="g20" transform="translate(514.44 165.41)"><path id="path22" d="m0 0-86.198-47.827-15.771 2.563l85.165 49.056 16.805-3.792z" fill="#3058a0"/></g><g id="g24" transform="translate(497.64 169.2)"><path id="path26" d="m0 0-85.164-49.056-23.256 32.216 89.722 66.542 18.698-49.702z" fill="#2796dd"/></g><g id="g28" transform="translate(478.73 217.94)"><path id="path30" d="m0 0 14.882-7.93 20.024-43.711-15.997 2.901-18.909 48.74z" fill="#fff"/></g><g id="g32" transform="translate(478.73 217.94)"><path id="path34" stroke-linejoin="round" d="m0 0 14.882-7.93 20.024-43.711-15.997 2.901-18.909 48.74z" stroke="#000" stroke-width="2.5" fill="none"/></g><g id="g36" transform="translate(509.41 141.39)"><path id="path38" d="m0 0-85.513-50.124-5.255 20.452 83.527 47.35l7.241-17.678z" fill="#2795db"/></g><g id="g40" transform="translate(524.45 139.3)"><path id="path42" d="m0 0-85.532-48.817-15.02 0.784l85.511 50.124 15.039-2.091z" fill="#3058a0"/></g><g id="g44" transform="translate(516.55 157.66)"><path id="path46" d="m0 0 7.116-17.505-13.092 1.812-7.363 17.142 13.339-1.449z" fill="#fff"/></g><g id="g48" transform="translate(516.55 157.66)"><path id="path50" stroke-linejoin="round" d="m0 0 7.116-17.505-13.092 1.812-7.363 17.142 13.339-1.449z" stroke="#000" stroke-width="2.5" fill="none"/></g><g id="g52" transform="translate(464.58 189.46)"><path id="path54" d="m0 0-85.137-49.095-10.447 26.211 85.726 48.222 9.858-25.338z" fill="#2796dd"/></g><g id="g56" transform="translate(488.24 163.37)"><path id="path58" d="m0 0-86.641-48.758-16.403 2.346l84.532 49.991 18.508-3.579z" fill="#3058a0"/></g><g id="g60" transform="translate(454.52 213.82)"><path id="path62" d="m0 0-85.524-47.244-12.028 4.415 85.618 48.383 11.934-5.554z" fill="#3058a0"/></g><g id="g64" transform="translate(477.93 144.85)"><path id="path66" d="m0 0-83.631-48.782-24.449 1.832 83.652 51.301 24.428-4.351z" fill="#3058a0"/></g><g id="g68" transform="translate(453.51 149.2)"><path id="path70" d="m0 0-83.652-51.301-44.7 77.126 90.159 77.376l38.191-103.2z" fill="#2796dc"/></g><g id="g72" transform="translate(452.19 191.47)"><path id="path74" d="m0 0 12.393-2.013-9.859 25.338-12.135 4.576 9.601-27.901m34.188-27.231-16.648 2.711 7.391-21.199-23.616 3.452-38.374 102.19 47.603-26.166 23.644-60.988z" fill="#fff"/></g><g id="g76" transform="translate(452.19 191.47)"><path id="path78" stroke-linejoin="round" d="m0 0 12.393-2.013-9.859 25.338-12.135 4.576 9.601-27.901m34.188-27.231-16.648 2.711 7.391-21.199-23.616 3.452-38.374 102.19 47.603-26.166 23.644-60.988z" stroke="#000" stroke-width="2.5" fill="none"/></g><g id="g80" transform="translate(403.54 208.45)"><path id="path82" d="m0 0-84.48-50.076-16.314 36.534 85.232 48.959l15.558-35.417z" fill="#2896dd"/></g><g id="g84" transform="translate(425.6 153.07)"><path id="path86" d="m0 0-83.219-51.945-11.457 27.24 83.813 51.059l10.863-26.354z" fill="#2796dd"/></g><g id="g88" transform="translate(442.77 149.86)"><path id="path90" d="m0 0-84.308-50.643-16.084 1.909l83.217 51.945 17.173-3.211z" fill="#3058a0"/></g><g id="g92" transform="translate(388.89 242.83)"><path id="path94" d="m0 0-10.017-3.872-9.013 3.266 9.098 4.928 9.932-4.322z" fill="#3058a0"/></g><g id="g96" transform="translate(414.74 179.42)"><path id="path98" d="m0 0-29.279-17.256-3.456 9.7 15.193 10.41l17.542-2.854z" fill="#3058a0"/></g><g id="g100" transform="translate(404.75 155.85)"><path id="path102" d="m0 0-83.498-51.027-20.352 2.63l82.331 52.458 21.519-4.061z" fill="#3058a0"/></g><g id="g104" transform="translate(375.03 159.34)"><path id="path106" d="m0 0-83.289-52.155-84.692 6.371l80.942 55.333 87.038-9.549z" fill="#3058a0"/></g><g id="g108" transform="translate(257.35 250.42)"><path id="path110" d="m0 0-82.693-52.731 9.651 24.824l83.594 51.389-10.552-23.482z" fill="#2898e0"/></g><g id="g112" transform="translate(287.99 168.89)"><path id="path114" d="m0 0-80.943-55.333-32.397 84.127 82.695 52.732 30.645-81.526z" fill="#2795dc"/></g><g id="g116" transform="translate(267.9 273.9)"><path id="path118" d="m0 0-83.594-51.389-68.784 26.404 82.91 52.41l69.47-27.425z" fill="#3058a0"/></g><g id="g120" transform="translate(139.98 408.4)"><path id="path122" d="m0 0 193.17-108.25-24.576-60.286 43.006-15.261 22.576-64.283-86.167 8.565-30.644 81.526 10.552 23.482l-69.47 27.43-58.45 107.08z" fill="#fff"/></g><g id="g124" transform="translate(139.98 408.4)"><path id="path126" stroke-linejoin="round" d="m0 0 193.17-108.25-24.576-60.286 43.006-15.261 22.576-64.283-86.167 8.565-30.644 81.526 10.552 23.482l-69.47 27.43-58.45 107.08z" stroke="#000" stroke-width="2.5" fill="none"/></g><g id="g128" transform="translate(210.2 127.96)"><path id="path130" d="m0 0-73.419-63.699 17.634 61.23 76.243 58.532-20.458-56.063z" fill="#2898e0"/></g><g id="g132" transform="translate(341.24 79.339)"><path id="path134" d="m0 0-80.175-56.784-103.22-22.847 74.509 69.083l108.89 10.548z" fill="#3058a0"/></g><g id="g136" transform="translate(232.35 68.791)"><path id="path138" d="m0 0-74.51-69.083-21.059 64.55 73.419 63.699 22.15-59.166z" fill="#4ec0f5"/></g><g id="g140" transform="translate(230.66 184.02)"><path id="path142" d="m0 0-76.243-58.531-108.39 3.52 67.579 58.064l117.05-3.053z" fill="#3058a0"/></g><g id="g144" transform="translate(113.6 187.07)"><path id="path146" d="m0 0-67.579-58.064-46.141 101.69 68.123 63.334 45.597-106.96z" fill="#2897de"/></g><g id="g148" transform="translate(-290.22 -246.88)"><g id="g150" clip-path="url(#clipPath152)"><g id="g156" transform="translate(358.2 539.68)"><path id="path158" d="m0 0c8.989-2.442 177.26-45.086 179.52-47.105l29.961-81.333-5.617-23.336 47.669-1.033 20.881-59.709-108.04-11.493-22.15 59.166 20.458 56.063-117.06 3.053-45.62 105.72z" fill="#fff"/></g><g id="g160" transform="translate(358.2 539.68)"><path id="path162" stroke-linejoin="round" d="m0 0c8.989-2.442 177.26-45.086 179.52-47.105l29.961-81.333-5.617-23.336 47.669-1.033 20.881-59.709-108.04-11.493-22.15 59.166 20.458 56.063-117.06 3.053-45.62 105.72z" stroke="#000" stroke-width="2.5" fill="none"/></g><g id="g164" transform="translate(678.13 458.53)"><path id="path166" d="m0 0 15.629-3.199-15.562 35.416-9.022 3.281 8.955-35.498m5.786 51.995 48.243-112.86-16.341 2.281-10.863 26.354-17.542 2.854 6.976-25.064-20.669 3.102-34.314 128.75 44.51-25.417z" fill="#fff"/></g><g id="g168" transform="translate(678.13 458.53)"><path id="path170" stroke-linejoin="round" d="m0 0 15.629-3.199-15.562 35.416-9.022 3.281 8.955-35.498m5.786 51.995 48.243-112.86-16.341 2.281-10.863 26.354-17.542 2.854 6.976-25.064-20.669 3.102-34.314 128.75 44.51-25.417z" stroke="#000" stroke-width="2.5" fill="none"/></g></g></g></g></svg>

<?xml version="1.0" encoding="UTF-8" standalone="no"?>
<!-- Created with Inkscape (http://www.inkscape.org/) -->

<svg
   xmlns:dc="http://purl.org/dc/elements/1.1/"
   xmlns:cc="http://creativecommons.org/ns#"
   xmlns:rdf="http://www.w3.org/1999/02/22-rdf-syntax-ns#"
   xmlns:svg="http://www.w3.org/2000/svg"
   xmlns="http://www.w3.org/2000/svg"
   xmlns:sodipodi="http://sodipodi.sourceforge.net/DTD/sodipodi-0.dtd"
   xmlns:inkscape="http://www.inkscape.org/namespaces/inkscape"
   id="svg2"
   version="1.1"
   inkscape:version="0.91 r13725"
   xml:space="preserve"
   width="656"
   height="512"
   viewBox="0 0 656 511.99998"
   sodipodi:docname="Front.svg"><metadata
     id="metadata8"><rdf:RDF><cc:Work
         rdf:about=""><dc:format>image/svg+xml</dc:format><dc:type
           rdf:resource="http://purl.org/dc/dcmitype/StillImage" /><dc:title></dc:title></cc:Work></rdf:RDF></metadata><defs
     id="defs6"><clipPath
       clipPathUnits="userSpaceOnUse"
       id="clipPath152"><path
         d="m 0,841.89 1190.55,0 L 1190.55,0 0,0 0,841.89 Z"
         id="path154"
         inkscape:connector-curvature="0" /></clipPath></defs><sodipodi:namedview
     pagecolor="#ffffff"
     bordercolor="#666666"
     borderopacity="1"
     objecttolerance="10"
     gridtolerance="10"
     guidetolerance="10"
     inkscape:pageopacity="0"
     inkscape:pageshadow="2"
     inkscape:window-width="1271"
     inkscape:window-height="796"
     id="namedview4"
     showgrid="false"
     inkscape:zoom="1.6255261"
     inkscape:cx="444.2521"
     inkscape:cy="190.57283"
     inkscape:window-x="0"
     inkscape:window-y="0"
     inkscape:window-maximized="0"
     inkscape:current-layer="g10" /><g
     id="g10"
     inkscape:groupmode="layer"
     inkscape:label="Front"
     transform="matrix(1.25,0,0,-1.25,0,511.99995)"><g
       id="g12"
       transform="translate(383.50062,160.31362)"><path
         d="M 0,0 -82.605,-52.861 -123.08,51.851 -34.164,129.8 0,0 Z"
         style="fill:#2793d8;fill-opacity:1;fill-rule:nonzero;stroke:none"
         id="path14"
         inkscape:connector-curvature="0" /></g><g
       id="g16"
       transform="translate(198.42982,301.32482)"><path
         d="M 0,0 -82.91,-52.41 -143.104,57.269 -58.392,108.27 0,0 Z"
         style="fill:#2897de;fill-opacity:1;fill-rule:nonzero;stroke:none"
         id="path18"
         inkscape:connector-curvature="0" /></g><g
       id="g20"
       transform="translate(514.44102,165.41222)"><path
         d="m 0,0 -86.198,-47.827 -15.771,2.563 L -16.805,3.792 0,0 Z"
         style="fill:#3058a0;fill-opacity:1;fill-rule:nonzero;stroke:none"
         id="path22"
         inkscape:connector-curvature="0" /></g><g
       id="g24"
       transform="translate(497.63642,169.20422)"><path
         d="M 0,0 -85.164,-49.056 -108.417,-16.84 -18.698,49.702 0,0 Z"
         style="fill:#2796dd;fill-opacity:1;fill-rule:nonzero;stroke:none"
         id="path26"
         inkscape:connector-curvature="0" /></g><g
       id="g28"
       transform="translate(478.72722,217.94402)"><path
         d="M 0,0 14.882,-7.93 34.906,-51.641 18.909,-48.74 0,0 Z"
         style="fill:#ffffff;fill-opacity:1;fill-rule:nonzero;stroke:none"
         id="path30"
         inkscape:connector-curvature="0" /></g><g
       id="g32"
       transform="translate(478.72722,217.94402)"><path
         d="M 0,0 14.882,-7.93 34.906,-51.641 18.909,-48.74 0,0 Z"
         style="fill:none;stroke:#000000;stroke-width:2.5;stroke-linecap:butt;stroke-linejoin:round;stroke-miterlimit:4;stroke-dasharray:none;stroke-opacity:1"
         id="path34"
         inkscape:connector-curvature="0" /></g><g
       id="g36"
       transform="translate(509.41472,141.38592)"><path
         d="m 0,0 -85.513,-50.124 -5.255,20.452 83.527,47.35 L 0,0 Z"
         style="fill:#2795db;fill-opacity:1;fill-rule:nonzero;stroke:none"
         id="path38"
         inkscape:connector-curvature="0" /></g><g
       id="g40"
       transform="translate(524.45372,139.29512)"><path
         d="m 0,0 -85.532,-48.817 -15.02,0.784 L -15.039,2.091 0,0 Z"
         style="fill:#3058a0;fill-opacity:1;fill-rule:nonzero;stroke:none"
         id="path42"
         inkscape:connector-curvature="0" /></g><g
       id="g44"
       transform="translate(516.55042,157.65832)"><path
         d="M 0,0 7.116,-17.505 -5.976,-15.693 -13.339,1.449 0,0 Z"
         style="fill:#ffffff;fill-opacity:1;fill-rule:nonzero;stroke:none"
         id="path46"
         inkscape:connector-curvature="0" /></g><g
       id="g48"
       transform="translate(516.55042,157.65832)"><path
         d="M 0,0 7.116,-17.505 -5.976,-15.693 -13.339,1.449 0,0 Z"
         style="fill:none;stroke:#000000;stroke-width:2.5;stroke-linecap:butt;stroke-linejoin:round;stroke-miterlimit:4;stroke-dasharray:none;stroke-opacity:1"
         id="path50"
         inkscape:connector-curvature="0" /></g><g
       id="g52"
       transform="translate(464.58362,189.45622)"><path
         d="M 0,0 -85.137,-49.095 -95.584,-22.884 -9.858,25.338 0,0 Z"
         style="fill:#2796dd;fill-opacity:1;fill-rule:nonzero;stroke:none"
         id="path54"
         inkscape:connector-curvature="0" /></g><g
       id="g56"
       transform="translate(488.23892,163.37032)"><path
         d="m 0,0 -86.641,-48.758 -16.403,2.346 L -18.508,3.579 0,0 Z"
         style="fill:#3058a0;fill-opacity:1;fill-rule:nonzero;stroke:none"
         id="path58"
         inkscape:connector-curvature="0" /></g><g
       id="g60"
       transform="translate(454.52402,213.81652)"><path
         d="M 0,0 -85.524,-47.244 -97.552,-42.829 -11.934,5.554 0,0 Z"
         style="fill:#3058a0;fill-opacity:1;fill-rule:nonzero;stroke:none"
         id="path62"
         inkscape:connector-curvature="0" /></g><g
       id="g64"
       transform="translate(477.93422,144.85172)"><path
         d="M 0,0 -83.631,-48.782 -108.08,-46.95 -24.428,4.351 0,0 Z"
         style="fill:#3058a0;fill-opacity:1;fill-rule:nonzero;stroke:none"
         id="path66"
         inkscape:connector-curvature="0" /></g><g
       id="g68"
       transform="translate(453.50652,149.20232)"><path
         d="m 0,0 -83.652,-51.301 -44.7,77.126 90.159,77.376 L 0,0 Z"
         style="fill:#2796dc;fill-opacity:1;fill-rule:nonzero;stroke:none"
         id="path70"
         inkscape:connector-curvature="0" /></g><g
       id="g72"
       transform="translate(452.19102,191.46942)"><path
         d="M 0,0 12.393,-2.013 2.534,23.325 -9.601,27.901 0,0 M 34.188,-27.231 17.54,-24.52 24.931,-45.719 1.315,-42.267 -37.059,59.926 10.544,33.757 34.188,-27.231 Z"
         style="fill:#ffffff;fill-opacity:1;fill-rule:nonzero;stroke:none"
         id="path74"
         inkscape:connector-curvature="0" /></g><g
       id="g76"
       transform="translate(452.19102,191.46942)"><path
         d="M 0,0 12.393,-2.013 2.534,23.325 -9.601,27.901 0,0 M 34.188,-27.231 17.54,-24.52 24.931,-45.719 1.315,-42.267 -37.059,59.926 10.544,33.757 34.188,-27.231 Z"
         style="fill:none;stroke:#000000;stroke-width:2.5;stroke-linecap:butt;stroke-linejoin:round;stroke-miterlimit:4;stroke-dasharray:none;stroke-opacity:1"
         id="path78"
         inkscape:connector-curvature="0" /></g><g
       id="g80"
       transform="translate(403.53972,208.45232)"><path
         d="m 0,0 -84.48,-50.076 -16.314,36.534 85.232,48.959 L 0,0 Z"
         style="fill:#2896dd;fill-opacity:1;fill-rule:nonzero;stroke:none"
         id="path82"
         inkscape:connector-curvature="0" /></g><g
       id="g84"
       transform="translate(425.59922,153.06752)"><path
         d="m 0,0 -83.219,-51.945 -11.457,27.24 83.813,51.059 L 0,0 Z"
         style="fill:#2796dd;fill-opacity:1;fill-rule:nonzero;stroke:none"
         id="path86"
         inkscape:connector-curvature="0" /></g><g
       id="g88"
       transform="translate(442.77212,149.85662)"><path
         d="m 0,0 -84.308,-50.643 -16.084,1.909 L -17.173,3.211 0,0 Z"
         style="fill:#3058a0;fill-opacity:1;fill-rule:nonzero;stroke:none"
         id="path90"
         inkscape:connector-curvature="0" /></g><g
       id="g92"
       transform="translate(388.88732,242.82732)"><path
         d="M 0,0 -10.017,-3.872 -19.03,-0.606 -9.932,4.322 0,0 Z"
         style="fill:#3058a0;fill-opacity:1;fill-rule:nonzero;stroke:none"
         id="path94"
         inkscape:connector-curvature="0" /></g><g
       id="g96"
       transform="translate(414.73602,179.42102)"><path
         d="m 0,0 -29.279,-17.256 -3.456,9.7 15.193,10.41 L 0,0 Z"
         style="fill:#3058a0;fill-opacity:1;fill-rule:nonzero;stroke:none"
         id="path98"
         inkscape:connector-curvature="0" /></g><g
       id="g100"
       transform="translate(404.74572,155.84972)"><path
         d="m 0,0 -83.498,-51.027 -20.352,2.63 L -21.519,4.061 0,0 Z"
         style="fill:#3058a0;fill-opacity:1;fill-rule:nonzero;stroke:none"
         id="path102"
         inkscape:connector-curvature="0" /></g><g
       id="g104"
       transform="translate(375.02802,159.34292)"><path
         d="m 0,0 -83.289,-52.155 -84.692,6.371 L -87.038,9.549 0,0 Z"
         style="fill:#3058a0;fill-opacity:1;fill-rule:nonzero;stroke:none"
         id="path106"
         inkscape:connector-curvature="0" /></g><g
       id="g108"
       transform="translate(257.34582,250.41762)"><path
         d="m 0,0 -82.693,-52.731 9.651,24.824 L 10.552,23.482 0,0 Z"
         style="fill:#2898e0;fill-opacity:1;fill-rule:nonzero;stroke:none"
         id="path110"
         inkscape:connector-curvature="0" /></g><g
       id="g112"
       transform="translate(287.99042,168.89172)"><path
         d="M 0,0 -80.943,-55.333 -113.338,28.794 -30.645,81.526 0,0 Z"
         style="fill:#2795dc;fill-opacity:1;fill-rule:nonzero;stroke:none"
         id="path114"
         inkscape:connector-curvature="0" /></g><g
       id="g116"
       transform="translate(267.89812,273.90002)"><path
         d="m 0,0 -83.594,-51.389 -68.784,26.404 82.91,52.41 L 0,0 Z"
         style="fill:#3058a0;fill-opacity:1;fill-rule:nonzero;stroke:none"
         id="path118"
         inkscape:connector-curvature="0" /></g><g
       id="g120"
       transform="translate(139.98012,408.40392)"><path
         d="m 0,0 193.171,-108.247 -24.576,-60.286 43.006,-15.261 22.576,-64.283 -86.167,8.565 -30.644,81.526 10.552,23.482 L 58.45,-107.079 0,0 Z"
         style="fill:#ffffff;fill-opacity:1;fill-rule:nonzero;stroke:none"
         id="path122"
         inkscape:connector-curvature="0" /></g><g
       id="g124"
       transform="translate(139.98012,408.40392)"><path
         d="m 0,0 193.171,-108.247 -24.576,-60.286 43.006,-15.261 22.576,-64.283 -86.167,8.565 -30.644,81.526 10.552,23.482 L 58.45,-107.079 0,0 Z"
         style="fill:none;stroke:#000000;stroke-width:2.5;stroke-linecap:butt;stroke-linejoin:round;stroke-miterlimit:4;stroke-dasharray:none;stroke-opacity:1"
         id="path126"
         inkscape:connector-curvature="0" /></g><g
       id="g128"
       transform="translate(210.19692,127.95722)"><path
         d="M 0,0 -73.419,-63.699 -55.785,-2.469 20.458,56.063 0,0 Z"
         style="fill:#2898e0;fill-opacity:1;fill-rule:nonzero;stroke:none"
         id="path130"
         inkscape:connector-curvature="0" /></g><g
       id="g132"
       transform="translate(341.23502,79.33902)"><path
         d="m 0,0 -80.175,-56.784 -103.222,-22.847 74.509,69.083 L 0,0 Z"
         style="fill:#3058a0;fill-opacity:1;fill-rule:nonzero;stroke:none"
         id="path134"
         inkscape:connector-curvature="0" /></g><g
       id="g136"
       transform="translate(232.34732,68.791222)"><path
         d="M 0,0 -74.51,-69.083 -95.569,-4.533 -22.15,59.166 0,0 Z"
         style="fill:#4ec0f5;fill-opacity:1;fill-rule:nonzero;stroke:none"
         id="path138"
         inkscape:connector-curvature="0" /></g><g
       id="g140"
       transform="translate(230.65542,184.01972)"><path
         d="m 0,0 -76.243,-58.531 -108.391,3.52 67.579,58.064 L 0,0 Z"
         style="fill:#3058a0;fill-opacity:1;fill-rule:nonzero;stroke:none"
         id="path142"
         inkscape:connector-curvature="0" /></g><g
       id="g144"
       transform="translate(113.60022,187.07292)"><path
         d="M 0,0 -67.579,-58.064 -113.72,43.63 -45.597,106.96 0,0 Z"
         style="fill:#2897de;fill-opacity:1;fill-rule:nonzero;stroke:none"
         id="path146"
         inkscape:connector-curvature="0" /></g><g
       id="g148"
       transform="translate(-290.22398,-246.88168)"><g
         id="g150"
         clip-path="url(#clipPath152)"><g
           id="g156"
           transform="translate(358.1982,539.6816)"><path
             d="m 0,0 c 8.989,-2.442 177.263,-45.086 179.522,-47.105 l 29.961,-81.333 -5.617,-23.336 47.669,-1.033 20.881,-59.709 -108.043,-11.493 -22.15,59.166 20.458,56.063 -117.055,3.053 L 0,0 Z"
             style="fill:#ffffff;fill-opacity:1;fill-rule:nonzero;stroke:none"
             id="path158"
             inkscape:connector-curvature="0" /></g><g
           id="g160"
           transform="translate(358.1982,539.6816)"><path
             d="m 0,0 c 8.989,-2.442 177.263,-45.086 179.522,-47.105 l 29.961,-81.333 -5.617,-23.336 47.669,-1.033 20.881,-59.709 -108.043,-11.493 -22.15,59.166 20.458,56.063 -117.055,3.053 L 0,0 Z"
             style="fill:none;stroke:#000000;stroke-width:2.5;stroke-linecap:butt;stroke-linejoin:round;stroke-miterlimit:4;stroke-dasharray:none;stroke-opacity:1"
             id="path162"
             inkscape:connector-curvature="0" /></g><g
           id="g164"
           transform="translate(678.1348,458.5332)"><path
             d="M 0,0 15.629,-3.199 0.067,32.217 -8.955,35.498 0,0 M 5.786,51.995 54.029,-60.867 37.688,-58.584 26.825,-32.23 9.283,-29.376 16.259,-54.44 -4.41,-51.338 -38.724,77.409 5.786,51.995 Z"
             style="fill:#ffffff;fill-opacity:1;fill-rule:nonzero;stroke:none"
             id="path166"
             inkscape:connector-curvature="0" /></g><g
           id="g168"
           transform="translate(678.1348,458.5332)"><path
             d="M 0,0 15.629,-3.199 0.067,32.217 -8.955,35.498 0,0 M 5.786,51.995 54.029,-60.867 37.688,-58.584 26.825,-32.23 9.283,-29.376 16.259,-54.44 -4.41,-51.338 -38.724,77.409 5.786,51.995 Z"
             style="fill:none;stroke:#000000;stroke-width:2.5;stroke-linecap:butt;stroke-linejoin:round;stroke-miterlimit:4;stroke-dasharray:none;stroke-opacity:1"
             id="path170"
             inkscape:connector-curvature="0" /></g></g></g></g></svg>
